X: 0
T: A Little Ship Was On The Sea
Z: Mr. George Bird
Z: Copyright © 2004 by Douglas D. Anderson
Z: Released To The Public Domain
L: 1/4
M: 4/4
Q: 1/4=94
V: P1 name="Staff"
%%MIDI program 1 19
K: F
[V: P1]  (F/ G/) | A A A (G/ A/) | B B B (G/ A/) | B B B (c/ B/) | A3 (A/ B/) | c c c (f/ e/) | d d d (A/ B/) | c c B (A/ G/) | F3|]
w: A_ lit- tle ship was_ on the sea, It_ was a pret- ty_ sight; It_ sailed a- long so_ pleas- ant ly, And_ all was calm and_ bright.

